; generated by Slic3r 1.2.9 on 2016-04-26 at 17:51:59

; external perimeters extrusion width = 0.40mm
; perimeters extrusion width = 0.40mm
; infill extrusion width = 0.40mm
; solid infill extrusion width = 0.40mm
; top infill extrusion width = 0.40mm

M190 S65 ; set bed temperature
M104 S195 ; set temperature
G28 ; home all axes
G1 Z5 F500 ; lift nozzle
M109 S195 ; wait for temperature to be reached
G21 ; set units to millimeters
G90 ; use absolute coordinates
M82 ; use absolute distances for extrusion
G92 E0
M106 S255
G1 E-1.00000 F1800.00000
G92 E0
G1 Z0.320 F6000.000
G1 X102.220 Y177.336 F6000.000
G1 E1.00000 F1800.00000
G1 X103.375 Y176.858 E1.09502 F1200.000
G1 X125.302 Y176.858 E2.76165
G1 X127.142 Y178.698 E2.95952
G1 X127.142 Y241.302 E7.71797 F1200.000
G1 X125.302 Y243.142 E7.91583
G1 X62.698 Y243.142 E12.67428
G1 X60.858 Y241.302 E12.87215
G1 X60.858 Y219.375 E14.53878
G1 X61.336 Y218.220 E14.63380
G1 X102.178 Y177.379 E19.02402
G1 X102.544 Y177.820 F6000.000
G1 X103.489 Y177.429 E19.10176 F1200.000
G1 X125.065 Y177.429 E20.74177
G1 X126.571 Y178.935 E20.90366 F1200.000
G1 X126.571 Y241.065 E25.62614
G1 X125.065 Y242.571 E25.78803
G1 X62.935 Y242.571 E30.51050
G1 X61.429 Y241.065 E30.67239
G1 X61.429 Y219.489 E32.31240
G1 X61.820 Y218.544 E32.39014
G1 X102.501 Y177.863 E36.76308
G1 X102.867 Y178.305 F6000.000
G1 X103.602 Y178.000 E36.82355 F1200.000
G1 X124.828 Y178.000 E38.43693
G1 X126.000 Y179.172 E38.56285
G1 X126.000 Y240.828 E43.24934 F1200.000
G1 X124.828 Y242.000 E43.37526
G1 X63.172 Y242.000 E48.06176
G1 X62.000 Y240.828 E48.18767
G1 X62.000 Y219.602 E49.80105
G1 X62.305 Y218.867 E49.86152
G1 X102.825 Y178.347 E54.21718
G1 X103.191 Y178.789 F6000.000
G1 X103.716 Y178.572 E54.26038 F1200.000
G1 X124.592 Y178.572 E55.84713
G1 X125.428 Y179.408 E55.93707 F1200.000
G1 X125.428 Y240.592 E60.58759
G1 X124.592 Y241.428 E60.67753
G1 X63.408 Y241.428 E65.32805
G1 X62.572 Y240.592 E65.41799
G1 X62.572 Y219.716 E67.00475
G1 X62.789 Y219.191 E67.04794
G1 X103.148 Y178.832 E71.38633
G1 X103.515 Y179.273 F6000.000
G1 X103.830 Y179.143 E71.41224 F1200.000
G1 X124.355 Y179.143 E72.97238
G1 X124.857 Y179.645 E73.02634
G1 X124.857 Y240.355 E77.64089 F1200.000
G1 X124.355 Y240.857 E77.69485
G1 X63.645 Y240.857 E82.30940
G1 X63.143 Y240.355 E82.36336
G1 X63.143 Y219.830 E83.92349
G1 X63.273 Y219.515 E83.94941
G1 X103.472 Y179.316 E88.27052
G1 E87.27052 F1800.00000
G92 E0
G1 X124.118 Y179.714 F6000.000
G1 E1.00000 F1800.00000
G1 X124.286 Y179.882 E1.01799 F1200.000
G1 X124.286 Y240.118 E5.59656
G1 X124.118 Y240.286 E5.61455
G1 X63.882 Y240.286 E10.19312
G1 X63.714 Y240.118 E10.21110
G1 X63.714 Y219.943 E11.74461
G1 X63.758 Y219.838 E11.75325
G1 X103.838 Y179.758 E16.06165
G1 X103.943 Y179.714 E16.07028
G1 X124.058 Y179.714 E17.59923
G1 E16.59923 F1800.00000
G92 E0
G1 X123.680 Y239.680 F6000.000
G1 E1.00000 F1800.00000
G1 X64.320 Y239.680 E5.51194 F1200.000
G1 X64.320 Y220.133 E6.99773
G1 X104.133 Y180.320 E11.27734
G1 X123.680 Y180.320 E12.76314
G1 X123.680 Y239.620 E17.27051
G1 X123.334 Y239.480 F6000.000
G1 X123.109 Y239.109 F6000.000
G1 X64.891 Y239.109 E21.69560 F1200.000
G1 X64.891 Y220.369 E23.11998
G1 X104.369 Y180.891 E27.36361
G1 X123.109 Y180.891 E28.78799
G1 X123.109 Y239.049 E33.20851
G1 X122.537 Y238.537 F6000.000
G1 X65.463 Y238.537 E37.54675 F1200.000
G1 X65.463 Y220.606 E38.90971
G1 X104.606 Y181.463 E43.11737
G1 X122.537 Y181.463 E44.48034
G1 X122.537 Y238.477 E48.81401
G1 E47.81401 F1800.00000
G92 E0
G1 X94.252 Y210.108 F6000.000
G1 E1.00000 F1800.00000
G1 X93.717 Y210.585 E1.05452 F1200.000
G1 X93.110 Y210.968 E1.10904
G1 X92.451 Y211.247 E1.16349
G1 X91.785 Y211.411 E1.21558
G1 X91.071 Y211.469 E1.27005
G1 X90.357 Y211.411 E1.32452
G1 X89.692 Y211.247 E1.37660
G1 X89.032 Y210.968 E1.43105
G1 X88.425 Y210.585 E1.48557
G1 X87.890 Y210.108 E1.54009
G1 X87.440 Y209.551 E1.59450
G1 X87.098 Y208.957 E1.64657
G1 X86.855 Y208.317 E1.69863
G1 X86.707 Y207.617 E1.75303
G1 X86.676 Y206.900 E1.80755
G1 X86.762 Y206.188 E1.86207
G1 X86.964 Y205.499 E1.91659
G1 X87.274 Y204.854 E1.97100
G1 X87.663 Y204.291 E2.02307
G1 X88.138 Y203.797 E2.07514
G1 X88.707 Y203.363 E2.12952
G1 X89.341 Y203.027 E2.18404
G1 X90.021 Y202.800 E2.23856
G1 X90.729 Y202.686 E2.29308 F1200.000
G1 X91.445 Y202.690 E2.34750
G1 X92.121 Y202.800 E2.39958
G1 X92.771 Y203.017 E2.45164
G1 X93.407 Y203.345 E2.50602
G1 X93.982 Y203.774 E2.56053
G1 X94.479 Y204.291 E2.61506
G1 X94.885 Y204.881 E2.66952
G1 X95.179 Y205.500 E2.72161
G1 X95.380 Y206.188 E2.77606
G1 X95.466 Y206.900 E2.83058
G1 X95.435 Y207.617 E2.88510
G1 X95.287 Y208.317 E2.93950
G1 X95.044 Y208.957 E2.99156
G1 X94.702 Y209.551 E3.04363
G1 X94.290 Y210.061 E3.09348
G1 X94.355 Y210.494 F6000.000
G1 X94.697 Y210.466 F6000.000
G1 X94.062 Y211.043 E3.15866 F1200.000
G1 X93.376 Y211.476 E3.22032
G1 X92.631 Y211.791 E3.28177
G1 X91.878 Y211.976 E3.34077
G1 X91.071 Y212.043 E3.40229
G1 X90.265 Y211.976 E3.46380
G1 X89.511 Y211.791 E3.52280
G1 X88.766 Y211.476 E3.58426
G1 X88.080 Y211.043 E3.64592
G1 X87.475 Y210.503 E3.70758
G1 X86.968 Y209.875 E3.76893
G1 X86.580 Y209.203 E3.82789
G1 X86.305 Y208.478 E3.88683
G1 X86.139 Y207.688 E3.94817
G1 X86.103 Y206.878 E4.00982
G1 X86.201 Y206.073 E4.07148
G1 X86.428 Y205.294 E4.13314
G1 X86.778 Y204.567 E4.19450
G1 X87.219 Y203.928 E4.25347
G1 X87.756 Y203.369 E4.31241
G1 X88.398 Y202.880 E4.37373
G1 X89.115 Y202.501 E4.43538
G1 X89.884 Y202.243 E4.49705
G1 X90.685 Y202.115 E4.55871 F1200.000
G1 X91.493 Y202.119 E4.62008
G1 X92.259 Y202.243 E4.67906
G1 X92.994 Y202.489 E4.73798
G1 X93.711 Y202.859 E4.79929
G1 X94.361 Y203.344 E4.86095
G1 X94.923 Y203.928 E4.92261
G1 X95.382 Y204.595 E4.98410
G1 X95.714 Y205.296 E5.04310
G1 X95.941 Y206.073 E5.10458
G1 X96.039 Y206.878 E5.16624
G1 X96.004 Y207.688 E5.22790
G1 X95.837 Y208.478 E5.28923
G1 X95.562 Y209.203 E5.34817
G1 X95.174 Y209.875 E5.40713
G1 X94.735 Y210.420 E5.46036
G1 X95.142 Y210.825 F6000.000
G1 X95.083 Y210.898 E5.46749 F1200.000
G1 X94.407 Y211.500 E5.53629
G1 X93.642 Y211.984 E5.60509
G1 X92.812 Y212.335 E5.67355
G1 X91.970 Y212.542 E5.73947
G1 X91.071 Y212.616 E5.80802
G1 X90.172 Y212.542 E5.87658
G1 X89.330 Y212.335 E5.94249
G1 X88.500 Y211.984 E6.01096
G1 X87.735 Y211.500 E6.07976
G1 X87.060 Y210.898 E6.14855
G1 X86.495 Y210.199 E6.21686
G1 X86.062 Y209.449 E6.28271
G1 X85.755 Y208.639 E6.34853
G1 X85.570 Y207.760 E6.41680
G1 X85.530 Y206.856 E6.48559
G1 X85.639 Y205.957 E6.55439
G1 X85.893 Y205.089 E6.62319
G1 X86.283 Y204.279 E6.69151
G1 X86.775 Y203.566 E6.75737
G1 X87.375 Y202.941 E6.82318
G1 X88.089 Y202.397 E6.89143
G1 X88.889 Y201.974 E6.96022
G1 X89.747 Y201.686 E7.02902
G1 X90.641 Y201.543 E7.09782 F1200.000
G1 X91.540 Y201.548 E7.16616
G1 X92.396 Y201.687 E7.23204
G1 X93.217 Y201.961 E7.29783
G1 X94.014 Y202.373 E7.36606
G1 X94.740 Y202.914 E7.43486
G1 X95.368 Y203.566 E7.50365
G1 X95.878 Y204.309 E7.57218
G1 X96.250 Y205.092 E7.63809
G1 X96.503 Y205.957 E7.70659
G1 X96.612 Y206.856 E7.77539
G1 X96.572 Y207.760 E7.84418
G1 X96.387 Y208.639 E7.91245
G1 X96.080 Y209.449 E7.97827
G1 X95.647 Y210.199 E8.04412
G1 X95.179 Y210.779 E8.10073
G1 X110.307 Y193.831 F6000.000
G1 X109.789 Y193.252 E8.15977 F1200.000
G1 X109.360 Y192.604 E8.21882
G1 X109.036 Y191.913 E8.27683
G1 X108.807 Y191.157 E8.33686
G1 X108.693 Y190.388 E8.39594
G1 X108.693 Y189.612 E8.45498
G1 X108.806 Y188.843 E8.51403
G1 X109.030 Y188.099 E8.57307
G1 X109.360 Y187.396 E8.63212
G1 X109.789 Y186.748 E8.69116
G1 X110.307 Y186.169 E8.75020
G1 X110.894 Y185.681 E8.80821
G1 X111.567 Y185.268 E8.86825
G1 X112.282 Y184.964 E8.92732
G1 X113.034 Y184.768 E8.98637
G1 X113.792 Y184.684 E9.04438 F1200.000
G1 X114.582 Y184.711 E9.10441
G1 X115.346 Y184.852 E9.16349
G1 X116.081 Y185.103 E9.22253
G1 X116.772 Y185.458 E9.28158
G1 X117.404 Y185.910 E9.34062
G1 X117.963 Y186.449 E9.39967
G1 X118.438 Y187.064 E9.45871
G1 X118.818 Y187.742 E9.51775
G1 X119.095 Y188.467 E9.57680
G1 X119.264 Y189.225 E9.63584
G1 X119.321 Y190.000 E9.69489
G1 X119.264 Y190.775 E9.75393
G1 X119.095 Y191.533 E9.81297
G1 X118.818 Y192.258 E9.87202
G1 X118.438 Y192.936 E9.93106
G1 X117.963 Y193.551 E9.99011
G1 X117.404 Y194.090 E10.04915
G1 X116.772 Y194.542 E10.10819
G1 X116.081 Y194.897 E10.16724
G1 X115.346 Y195.148 E10.22628
G1 X114.582 Y195.289 E10.28533
G1 X113.806 Y195.317 E10.34437
G1 X113.034 Y195.232 E10.40341
G1 X112.282 Y195.036 E10.46246
G1 X111.567 Y194.732 E10.52150
G1 X110.904 Y194.327 E10.58055
G1 X110.353 Y193.869 E10.63503
G1 X109.920 Y193.932 F6000.000
G1 X109.941 Y194.270 F6000.000
G1 X109.335 Y193.602 E10.70358 F1200.000
G1 X108.860 Y192.884 E10.76898
G1 X108.501 Y192.118 E10.83329
G1 X108.247 Y191.283 E10.89968
G1 X108.122 Y190.430 E10.96517
G1 X108.122 Y189.570 E11.03057
G1 X108.247 Y188.719 E11.09597
G1 X108.495 Y187.895 E11.16137
G1 X108.860 Y187.116 E11.22677
G1 X109.335 Y186.398 E11.29217
G1 X109.909 Y185.757 E11.35757
G1 X110.560 Y185.216 E11.42188
G1 X111.304 Y184.759 E11.48828
G1 X112.097 Y184.422 E11.55376
G1 X112.929 Y184.204 E11.61917
G1 X113.770 Y184.112 E11.68348 F1200.000
G1 X114.643 Y184.141 E11.74987
G1 X115.491 Y184.298 E11.81536
G1 X116.305 Y184.576 E11.88076
G1 X117.070 Y184.969 E11.94616
G1 X117.770 Y185.470 E12.01156
G1 X118.389 Y186.067 E12.07696
G1 X118.915 Y186.748 E12.14236
G1 X119.336 Y187.498 E12.20776
G1 X119.644 Y188.302 E12.27316
G1 X119.831 Y189.142 E12.33856
G1 X119.894 Y190.000 E12.40396
G1 X119.831 Y190.858 E12.46936
G1 X119.644 Y191.698 E12.53477
G1 X119.336 Y192.502 E12.60017
G1 X118.915 Y193.252 E12.66557
G1 X118.389 Y193.933 E12.73097
G1 X117.770 Y194.530 E12.79637
G1 X117.070 Y195.031 E12.86177
G1 X116.305 Y195.424 E12.92717
G1 X115.491 Y195.702 E12.99257
G1 X114.645 Y195.858 E13.05797
G1 X113.785 Y195.890 E13.12337
G1 X112.929 Y195.796 E13.18877
G1 X112.097 Y195.578 E13.25417
G1 X111.305 Y195.242 E13.31957
G1 X110.571 Y194.793 E13.38498
G1 X109.988 Y194.308 E13.44264
G1 X109.576 Y194.709 F6000.000
G1 X108.882 Y193.952 E13.52069 F1200.000
G1 X108.361 Y193.165 E13.59245
G1 X107.967 Y192.324 E13.66306
G1 X107.688 Y191.408 E13.73581
G1 X107.551 Y190.472 E13.80771
G1 X107.551 Y189.528 E13.87947
G1 X107.688 Y188.594 E13.95123
G1 X107.960 Y187.690 E14.02298
G1 X108.361 Y186.835 E14.09474
G1 X108.882 Y186.048 E14.16650
G1 X109.512 Y185.345 E14.23826
G1 X110.226 Y184.750 E14.30887
G1 X111.041 Y184.250 E14.38162
G1 X111.912 Y183.880 E14.45352
G1 X112.825 Y183.641 E14.52528
G1 X113.749 Y183.539 E14.59589 F1200.000
G1 X114.705 Y183.572 E14.66864
G1 X115.636 Y183.744 E14.74054
G1 X116.529 Y184.049 E14.81230
G1 X117.369 Y184.480 E14.88405
G1 X118.136 Y185.029 E14.95581
G1 X118.816 Y185.685 E15.02757
G1 X119.393 Y186.432 E15.09933
G1 X119.855 Y187.255 E15.17108
G1 X120.192 Y188.137 E15.24284
G1 X120.398 Y189.058 E15.31460
G1 X120.467 Y190.000 E15.38636
G1 X120.398 Y190.942 E15.45811
G1 X120.192 Y191.863 E15.52987
G1 X119.855 Y192.745 E15.60163
G1 X119.393 Y193.568 E15.67339
G1 X118.816 Y194.315 E15.74514
G1 X118.136 Y194.971 E15.81690
G1 X117.369 Y195.520 E15.88866
G1 X116.529 Y195.951 E15.96042
G1 X115.636 Y196.256 E16.03217
G1 X114.707 Y196.428 E16.10393
G1 X113.764 Y196.462 E16.17569
G1 X112.825 Y196.359 E16.24745
G1 X111.912 Y196.120 E16.31920
G1 X111.043 Y195.751 E16.39096
G1 X110.237 Y195.259 E16.46272
G1 X109.622 Y194.747 E16.52356
G1 X112.282 Y204.964 F6000.000
G1 X113.034 Y204.768 E16.58260 F1200.000
G1 X113.792 Y204.684 E16.64061 F1200.000
G1 X114.582 Y204.711 E16.70065
G1 X115.346 Y204.852 E16.75973
G1 X116.081 Y205.103 E16.81877
G1 X116.772 Y205.458 E16.87781
G1 X117.404 Y205.910 E16.93686
G1 X117.963 Y206.449 E16.99590
G1 X118.438 Y207.064 E17.05495
G1 X118.818 Y207.742 E17.11399
G1 X119.095 Y208.467 E17.17303
G1 X119.264 Y209.225 E17.23208
G1 X119.321 Y210.000 E17.29112
G1 X119.264 Y210.775 E17.35017
G1 X119.095 Y211.533 E17.40921
G1 X118.818 Y212.258 E17.46825
G1 X118.438 Y212.936 E17.52730
G1 X117.963 Y213.551 E17.58634
G1 X117.404 Y214.090 E17.64538
G1 X116.772 Y214.542 E17.70443
G1 X116.081 Y214.897 E17.76347
G1 X115.359 Y215.143 E17.82148
G1 X114.582 Y215.289 E17.88152
G1 X113.806 Y215.317 E17.94059
G1 X113.034 Y215.232 E17.99964
G1 X112.282 Y215.036 E18.05868
G1 X111.567 Y214.732 E18.11773
G1 X110.904 Y214.327 E18.17677
G1 X110.307 Y213.830 E18.23581
G1 X109.789 Y213.252 E18.29486
G1 X109.360 Y212.604 E18.35390
G1 X109.030 Y211.901 E18.41295
G1 X108.806 Y211.157 E18.47199
G1 X108.693 Y210.388 E18.53103
G1 X108.693 Y209.612 E18.59008
G1 X108.806 Y208.843 E18.64912
G1 X109.030 Y208.099 E18.70817
G1 X109.360 Y207.396 E18.76721
G1 X109.789 Y206.748 E18.82625
G1 X110.307 Y206.169 E18.88530
G1 X110.904 Y205.673 E18.94434
G1 X111.567 Y205.268 E19.00339
G1 X112.227 Y204.988 E19.05787
G1 X112.369 Y204.574 F6000.000
G1 X112.059 Y204.438 F6000.000
G1 X112.929 Y204.204 E19.12642 F1200.000
G1 X113.770 Y204.112 E19.19073 F1200.000
G1 X114.643 Y204.141 E19.25712
G1 X115.491 Y204.298 E19.32261
G1 X116.305 Y204.576 E19.38801
G1 X117.070 Y204.969 E19.45341
G1 X117.770 Y205.470 E19.51881
G1 X118.389 Y206.067 E19.58421
G1 X118.915 Y206.748 E19.64961
G1 X119.336 Y207.498 E19.71501
G1 X119.644 Y208.302 E19.78041
G1 X119.831 Y209.142 E19.84581
G1 X119.894 Y210.000 E19.91121
G1 X119.831 Y210.858 E19.97662
G1 X119.644 Y211.698 E20.04202
G1 X119.336 Y212.502 E20.10742
G1 X118.915 Y213.252 E20.17282
G1 X118.389 Y213.933 E20.23822
G1 X117.770 Y214.530 E20.30362
G1 X117.070 Y215.031 E20.36902
G1 X116.305 Y215.424 E20.43442
G1 X115.504 Y215.697 E20.49873
G1 X114.646 Y215.858 E20.56512
G1 X113.785 Y215.890 E20.63061
G1 X112.929 Y215.796 E20.69601
G1 X112.097 Y215.578 E20.76141
G1 X111.305 Y215.242 E20.82681
G1 X110.571 Y214.793 E20.89222
G1 X109.909 Y214.243 E20.95762
G1 X109.335 Y213.602 E21.02302
G1 X108.860 Y212.884 E21.08842
G1 X108.495 Y212.105 E21.15382
G1 X108.247 Y211.281 E21.21922
G1 X108.122 Y210.430 E21.28462
G1 X108.122 Y209.570 E21.35002
G1 X108.247 Y208.719 E21.41542
G1 X108.495 Y207.895 E21.48082
G1 X108.860 Y207.116 E21.54622
G1 X109.335 Y206.398 E21.61162
G1 X109.909 Y205.757 E21.67702
G1 X110.571 Y205.207 E21.74243
G1 X111.305 Y204.758 E21.80783
G1 X112.003 Y204.462 E21.86549
G1 X111.835 Y203.912 F6000.000
G1 X112.825 Y203.641 E21.94354 F1200.000
G1 X113.749 Y203.539 E22.01415 F1200.000
G1 X114.705 Y203.572 E22.08690
G1 X115.636 Y203.744 E22.15880
G1 X116.529 Y204.049 E22.23056
G1 X117.369 Y204.480 E22.30232
G1 X118.136 Y205.029 E22.37408
G1 X118.816 Y205.685 E22.44583
G1 X119.393 Y206.432 E22.51759
G1 X119.855 Y207.255 E22.58935
G1 X120.192 Y208.137 E22.66111
G1 X120.398 Y209.058 E22.73286
G1 X120.467 Y210.000 E22.80462
G1 X120.398 Y210.942 E22.87638
G1 X120.192 Y211.863 E22.94814
G1 X119.855 Y212.745 E23.01989
G1 X119.393 Y213.568 E23.09165
G1 X118.816 Y214.315 E23.16341
G1 X118.136 Y214.971 E23.23517
G1 X117.369 Y215.520 E23.30692
G1 X116.529 Y215.951 E23.37868
G1 X115.650 Y216.251 E23.44929
G1 X114.709 Y216.428 E23.52204
G1 X113.764 Y216.462 E23.59394
G1 X112.825 Y216.359 E23.66570
G1 X111.912 Y216.120 E23.73746
G1 X111.043 Y215.751 E23.80922
G1 X110.237 Y215.259 E23.88097
G1 X109.512 Y214.655 E23.95273
G1 X108.882 Y213.952 E24.02449
G1 X108.361 Y213.165 E24.09625
G1 X107.960 Y212.310 E24.16800
G1 X107.688 Y211.406 E24.23976
G1 X107.551 Y210.472 E24.31152
G1 X107.551 Y209.528 E24.38328
G1 X107.688 Y208.594 E24.45503
G1 X107.960 Y207.690 E24.52679
G1 X108.361 Y206.835 E24.59855
G1 X108.882 Y206.048 E24.67031
G1 X109.512 Y205.345 E24.74206
G1 X110.237 Y204.741 E24.81382
G1 X111.043 Y204.249 E24.88558
G1 X111.780 Y203.936 E24.94642
G1 E23.94642 F1800.00000
G92 E0
G1 X113.571 Y227.161 F6000.000
G1 E1.00000 F1800.00000
G1 X114.143 Y227.132 E1.04356 F1200.000
G1 X114.718 Y227.220 E1.08774
G1 X115.263 Y227.421 E1.13192
G1 X115.757 Y227.728 E1.17611
G1 X116.178 Y228.129 E1.22029
G1 X116.510 Y228.606 E1.26448
G1 X116.740 Y229.140 E1.30867
G1 X116.857 Y229.709 E1.35285
G1 X116.857 Y230.291 E1.39704
G1 X116.740 Y230.860 E1.44123
G1 X116.510 Y231.394 E1.48541
G1 X116.178 Y231.871 E1.52960
G1 X115.757 Y232.272 E1.57379
G1 X115.263 Y232.579 E1.61797
G1 X114.718 Y232.780 E1.66216
